.local/share/icons/Gruvbox-Plus-Dark/status/symbolic/network-transmit-symbolic.svg

<svg width="16" height="16" version="1.1" xmlns="http://www.w3.org/2000/svg">
  <defs>
    <style id="current-color-scheme" type="text/css">.ColorScheme-Text { color:#ebdbb2; } .ColorScheme-Highlight { color:#458588; } .ColorScheme-NeutralText { color:#fe8019; } .ColorScheme-PositiveText { color:#689d6a; } .ColorScheme-NegativeText { color:#fb4934; }</style>
  </defs>
  <path class="ColorScheme-Text" d="m6 6-6 4.5 6 4.5v-2h3v-5h-3z" fill="currentColor" opacity=".3"/>
  <path class="ColorScheme-Text" d="m10 9 6-4.5-6-4.5v2h-3v5h3z" fill="currentColor"/>
</svg>

<svg xmlns="http://www.w3.org/2000/svg" width="16" height="16" version="1.1">
 <path style="fill:#ebdbb2" d="M 10,9 15.5,4.5 10,0 C 10,0 10,1.34 10,2 9,2 8,2 7,2 7,3.67 7,5.34 7,7 8,7 9,7 10,7 10,7.67 10,9 10,9 Z"/>
 <path style="fill:#ebdbb2;opacity:0.3" d="M 6,6 0.5,10.5 6,15 V 13 H 9 V 8 H 6 Z"/>
</svg>
